X: 38128
T: Sporting Days Of Easter, The
R: reel
M: 4/4
K: Dmixolydian
d2cA G2EG|ABAG A2 (3ABc|d2cA BGEG|(3ABA GE D2D2:|
c3d eg~g2|eaag egge|c3d eg~g2|abge d2ed|
c3d eg~g2|eaag egge|fged cAGB|Add^c defe||

